X:197
T: The Outlaw of the Hills
N:"Slow" "collected by Hartnett"
B:O'Neill's 197
Z:Transcribed by henrik.norbeck@mailbox.swipnet.se
M:C
L:1/8
K:G
c|B2 A>G G2 G>A|(B<c) d>e (dG|(B<e) e>f e2 (d>B)|d2 e>f g3 f|
g>a b>a g2 f>g|e<g f>g (df e2 (df g>e (d<c)||
B2 A>G G2 G>A|Bd e3/2{G}F/ (e<d) (B>G)|A2 A>A (cG G2 z||
